X:1285
T:Beautiful Waltz
R:Waltz
O:England
M:3/4
L:1/4
B:"The Fiddler of Helperby", Dragonfly Music, ISBN 1-872277-18-7, 1994.
A:Yorkshire
H:Dance Music, 1820-1850
K:A
c|\
"A"e3|"A"ecd|"A"e3|"A"dea|\
"E"gzf|"E"ezd|"E"cdB|"A"Acd|\
"A"e3|"A"ecd|"A"e3|"A"cea|
"E"gzf|"E"edB|"A"A3|"A"Az:|\
|:e\
|"E"ef/e/ ^d/e/|"E7"bz=d|\
"A"cd/c/ ^B/c/|"A"(a/g/f/e/d/c/)|
"B7"(c/B/^A/B/c/B/)|"B7"g2f|\
"E7"(f/e/^d/e/=d/B/)|"A"Az:|\
|:c|\
"A"czc|"A"czc|"A"e3|"A"cAB|
"A"c2c|"A#dim"cfe|"Bm7"B3|"E7"BAB|\
"A"[Ac] z [Ac]|"A"[Ac] z [Ac]|"A"e3|"A"cag|\
"E7"g3/ f/d/B/|"A6"g3/ e/c/A/|"E7"e3/ d/B/G/|"A"Az:|


